public/images/hashed/35921533e64c692c31df674c725e5d07.svg

<?xml version="1.0" encoding="UTF-8"?>
<svg width="80px" height="80px" viewBox="0 0 80 80" version="1.1" xmlns="http://www.w3.org/2000/svg" xmlns:xlink="http://www.w3.org/1999/xlink">
    <!-- Generator: Sketch 64 (93537) - https://sketch.com -->
    <title>Icon-Architecture/64/Arch_Amazon-Kendra_64</title>
    <desc>Created with Sketch.</desc>
    <defs>
        <linearGradient x1="0%" y1="100%" x2="100%" y2="0%" id="linearGradient-1">
            <stop stop-color="#055F4E" offset="0%"></stop>
            <stop stop-color="#56C0A7" offset="100%"></stop>
        </linearGradient>
    </defs>
    <g id="Icon-Architecture/64/Arch_Amazon-Kendra_64" stroke="none" stroke-width="1" fill="none" fill-rule="evenodd">
        <g id="Icon-Architecture-BG/64/Machine-Learning" fill="url(#linearGradient-1)">
            <rect id="Rectangle" x="0" y="0" width="80" height="80"></rect>
        </g>
        <path d="M13.999933,34.0011905 L60.9994078,34.0011905 L60.9994078,32.0010953 L13.999933,32.0010953 L13.999933,34.0011905 Z M35.9996872,16.0003333 L60.9994078,16.0003333 L60.9994078,14.0002381 L35.9996872,14.0002381 L35.9996872,16.0003333 Z M25.9997989,16.0003333 L28.9997654,16.0003333 L28.9997654,14.0002381 L25.9997989,14.0002381 L25.9997989,16.0003333 Z M19.9998659,16.0003333 L22.9998324,16.0003333 L22.9998324,14.0002381 L19.9998659,14.0002381 L19.9998659,16.0003333 Z M13.999933,16.0003333 L16.9998994,16.0003333 L16.9998994,14.0002381 L13.999933,14.0002381 L13.999933,16.0003333 Z M56.7134557,50.3309681 C56.7134557,53.9121387 53.9084871,56.7172723 50.3275271,56.7172723 C46.7465671,56.7172723 43.9405984,53.9121387 43.9405984,50.3309681 C43.9405984,46.7487976 46.7465671,43.943664 50.3275271,43.943664 C53.9084871,43.943664 56.7134557,46.7487976 56.7134557,50.3309681 L56.7134557,50.3309681 Z M58.7134334,50.3309681 C58.7134334,45.6277442 55.0294745,41.9435687 50.3275271,41.9435687 C45.6245796,41.9435687 41.9406208,45.6277442 41.9406208,50.3309681 C41.9406208,55.0331921 45.6245796,58.7173675 50.3275271,58.7173675 C55.0294745,58.7173675 58.7134334,55.0331921 58.7134334,50.3309681 L58.7134334,50.3309681 Z M69.9873074,67.9868089 C70.0363069,67.6157912 69.937308,67.3027763 69.6933107,67.0587647 L61.5504017,59.1323873 C60.8424096,60.0324301 60.0304187,60.8444688 59.1304287,61.5525025 L67.0793399,69.6878899 C67.6923331,70.3009191 68.6523223,69.9099005 69.2783153,69.2838707 C69.671311,68.8908519 69.9293081,68.4178294 69.9873074,67.9868089 L69.9873074,67.9868089 Z M50.3275271,62.6115529 C57.0994514,62.6115529 62.6073899,57.1022906 62.6073899,50.3309681 C62.6073899,43.5586456 57.0994514,38.0493833 50.3275271,38.0493833 C43.5566027,38.0493833 38.0476643,43.5586456 38.0476643,50.3309681 C38.0476643,57.1022906 43.5566027,62.6115529 50.3275271,62.6115529 L50.3275271,62.6115529 Z M71.9692853,68.2518215 C71.8532866,69.122863 71.3992917,69.9909043 70.6922996,70.697938 C69.8303092,71.5609791 68.8043206,72 67.8313315,72 C67.0293405,72 66.265349,71.7019858 65.6573558,71.0949569 L57.4474475,62.6905567 C55.349471,63.9056146 52.9214981,64.6116482 50.3275271,64.6116482 C42.4536151,64.6116482 36.0476866,58.2053431 36.0476866,50.3309681 C36.0476866,42.4565932 42.4536151,36.0492881 50.3275271,36.0492881 C58.2014391,36.0492881 64.6073675,42.4565932 64.6073675,50.3309681 C64.6073675,52.9240916 63.9013754,55.3512072 62.688389,57.4493071 L71.098295,65.6346969 C71.7962872,66.3327301 72.1032838,67.2587742 71.9692853,68.2518215 L71.9692853,68.2518215 Z M13.999933,42.0015715 L35.9186881,42.0015715 C36.3346834,41.3025382 36.7896783,40.6295062 37.3006726,40.0014763 L13.999933,40.0014763 L13.999933,42.0015715 Z M64.9993632,19.0004762 L64.9993632,12.0001429 C64.9993632,11.4491166 64.5513682,11.0000952 63.9993743,11.0000952 L10.9999665,11.0000952 C10.4479726,11.0000952 9.99997765,11.4491166 9.99997765,12.0001429 L9.99997765,19.0004762 L64.9993632,19.0004762 Z M66.9993408,12.0001429 L66.9993408,20.0005238 L66.9993408,48.7028906 C66.7503436,46.4487833 66.0543514,44.3296824 64.9993632,42.4335921 L64.9993632,21.0005715 L9.99997765,21.0005715 L9.99997765,64.0026192 L40.3296388,64.0026192 C41.3916269,64.7936568 42.5386141,65.4776894 43.7716003,66.0027144 L8.99998883,66.0027144 C8.44699501,66.0027144 8,65.5546931 8,65.0026668 L8,20.0005238 L8,12.0001429 C8,10.3460641 9.34598496,9 10.9999665,9 L63.9993743,9 C65.6533559,9 66.9993408,10.3460641 66.9993408,12.0001429 L66.9993408,12.0001429 Z M33.7637121,48.0018572 C33.6617133,48.6578885 33.598714,49.3239202 33.5757142,50.0019525 L13.999933,50.0019525 L13.999933,48.0018572 L33.7637121,48.0018572 Z" id="Amazon-Kendra_Icon_64_Squid" fill="#FFFFFF"></path>
    </g>
</svg>

<svg xmlns="http://www.w3.org/2000/svg" width="80" height="80"><defs><linearGradient id="a" x1="0%" x2="100%" y1="100%" y2="0%"><stop offset="0%" stop-color="#055F4E"/><stop offset="100%" stop-color="#56C0A7"/></linearGradient></defs><g fill="none" fill-rule="evenodd"><path fill="url(#a)" d="M0 0h80v80H0z"/><path fill="#FFF" d="M14 34.001h47v-2H14v2Zm22-18h25v-2H36v2Zm-10 0h3v-2h-3v2Zm-6 0h3v-2h-3v2Zm-6 0h3v-2h-3v2Zm42.713 34.33c0 3.581-2.805 6.386-6.385 6.386-3.581 0-6.387-2.805-6.387-6.386 0-3.582 2.806-6.387 6.387-6.387 3.58 0 6.385 2.805 6.385 6.387Zm2 0c0-4.703-3.684-8.387-8.385-8.387-4.703 0-8.387 3.684-8.387 8.387 0 4.702 3.684 8.386 8.387 8.386 4.701 0 8.385-3.684 8.385-8.386Zm11.274 17.656c.05-.371-.05-.684-.294-.928l-8.143-7.927a14.43 14.43 0 0 1-2.42 2.42l7.95 8.136c.612.613 1.572.222 2.198-.404.393-.393.651-.866.71-1.297Zm-19.66-5.375c6.772 0 12.28-5.51 12.28-12.281 0-6.772-5.508-12.282-12.28-12.282-6.77 0-12.28 5.51-12.28 12.282 0 6.771 5.51 12.28 12.28 12.28Zm21.642 5.64c-.116.87-.57 1.739-1.277 2.446-.862.863-1.888 1.302-2.86 1.302a3.03 3.03 0 0 1-2.175-.905l-8.21-8.404a14.16 14.16 0 0 1-7.12 1.92c-7.873 0-14.28-6.406-14.28-14.28s6.407-14.282 14.28-14.282c7.874 0 14.28 6.408 14.28 14.282 0 2.593-.706 5.02-1.919 7.118l8.41 8.186c.698.698 1.005 1.624.871 2.617ZM14 42.002h21.92c.416-.7.87-1.372 1.382-2H14v2ZM65 19v-7c0-.55-.448-1-1-1H11c-.552 0-1 .45-1 1v7h55Zm2-7v36.703a16.628 16.628 0 0 0-2-6.27V21.002H10v43.002h30.33a16.78 16.78 0 0 0 3.442 2H9a1 1 0 0 1-1-1V12C8 10.345 9.346 9 11 9h53c1.653 0 3 1.346 3 3ZM33.764 48.002a16.682 16.682 0 0 0-.188 2H14v-2h19.764Z"/></g></svg>
